X:1
T:I Was Poorer Than All
T:Isaac V. Tracy
T:I Was Poorer Than All
T:Public Domain
T:Public Domain
T:Public Domain
C:Isaac V. Tracy
Z:Public Domain
%%score 1 ( 2 3 )
L:1/8
M:4/4
K:Eb
V:1 treble 
V:2 bass 
V:3 bass 
V:1
 [EG]>[B,F] | [B,E]2 [EG]>[GB] [Ge]2 [Ge][Bd] | [Ac]2 [Ae]>[Ac] [GB]2 [EG]>[EA] | %3
w: 1.~I was|poor- er than all, I was|hun- gry and cold, I was|
w: 2.~I was|poor- er than all, I was|friend- less, a- lone, I was|
w: 3.~I was|poor- er than all, I was|rea- dy to die, But the|
w: 4.~I was|poor- er than all till the|Lord said to me, “Go in|
 [EB]2 [Ec]>[EB] [EG]2 [EG]>[B,F] | [B,E]2 [EG]>[EB] [DF]3 [DB] | [EB]2 [EB][EB] [Ec][EB][EG][GB] | %6
w: far, far a- way from the|dear Shep- herd’s fold; But|Je- sus now gives me of His|
w: still in my sins, and my|heart was a stone; But|Je- sus smiled on me and said,|
w: Sav- ior came down from His|throne in the sky; On|Cal- v’ry He ran- somed such a|
w: peace, sin no more”; now I’m|hap- py and free, And|ev- er I’ll praise Him, and His|
 [Ac]2 [EA]>[Ac] [GB]2 [EG]>[CF] | [B,E]2 [EG]>[FA] [GB]3 [EG] | [DF]4 [B,E]2 || %9
w: rich- es un- told, Oh, the|peace of my soul is|Je- sus!|
w: “Thou art My own,” Oh, the|peace of my soul is|Je- sus!|
w: sin- ner as I, Oh, the|peace of my soul is|Je- sus!|
w: child I will be. Oh, the|peace of my soul is|Je- sus!|
"^Refrain" [EB]>[EB] | [EB]2 [EG]>[GB] [Ge]2 [GB]>[GB] | [Ac]2 [Ae]>[Ac] [GB]2 [EG]>[FA] | %12
w: |||
w: I was|poor- er than all; now I’ve|rich- es to spare, And a|
w: |||
w: |||
 [GB]2 [GB]>[GB] [Ac]2 [GB]>[GB] | [Ac]>[EB] [DA]>[EG] [DF]2 [EG]>[FA] | %14
w: ||
w: home He is build- ing for|me so bright and fair; And some|
w: ||
w: ||
 [GB]2 [GB][Ac] [GB][GB][EG][GB] | [Ac]2 [Ae]>[Ac] [GB]2 [EG]>[FA] | [GB]2 [GB]>[Ac] [GB]3 [EG] | %17
w: |||
w: day I am go- ing to my|home o- ver there, Oh, the|peace of my soul is|
w: |||
w: |||
 [DF]4 [B,E]2 |] %18
w: |
w: Je- sus!|
w: |
w: |
V:2
 [E,B,]>[E,A,] | [E,G,]2 [E,B,]>[E,B,] [E,B,]2 [E,B,][G,E] | %2
 [A,E]2 [A,C]>[A,E] [E,E]2 [E,B,]>[E,A,] | [E,G,]2 [E,A,]>[E,G,] [E,B,]2 [E,B,]>[E,A,] | %4
 [E,G,]2 [E,B,]>[G,B,] B,3 [B,,A,] | [E,G,]2 [E,G,][E,G,] [E,A,][E,G,][E,B,][E,E] | %6
 [A,E]2 [A,C]>[A,E] [E,E]2 [E,B,]>[E,B,] | [E,G,]2 [E,B,]>[E,E] [E,E]3 [E,B,] | [B,,A,]4 [E,G,]2 || %9
 [E,G,]>[E,G,] | [E,G,]2 [E,B,]>[E,B,] [E,B,]2 [E,E]>[E,E] | %11
 [A,E]2 [A,C]>[A,E] [E,E]2 [E,B,]>[E,B,] | [E,E]2 [E,E]>[E,E] [E,E]2 [E,E]>[E,E] | %13
 [A,E]>[G,B,] [F,B,]>[E,B,] [B,,B,]2 [E,B,]>[E,B,] | [E,E]2 [E,E][E,E] [E,E][E,E][E,B,][E,E] | %15
 [A,E]2 [A,C]>[A,E] [E,E]2 [E,B,]>[E,B,] | [E,E]2 [E,E]>[E,E] [E,E]3 [E,B,] | [B,,A,]4 [E,G,]2 |] %18
V:3
 x2 | x8 | x8 | x8 | x4 B,3 x | x8 | x8 | x8 | x6 || x2 | x8 | x8 | x8 | x8 | x8 | x8 | x8 | x6 |] %18

